Numix-GalliumOS/22/status/pamac-refresh.svg

<?xml version="1.0" encoding="UTF-8" standalone="no"?>
<svg
   xmlns:dc="http://purl.org/dc/elements/1.1/"
   xmlns:cc="http://creativecommons.org/ns#"
   xmlns:rdf="http://www.w3.org/1999/02/22-rdf-syntax-ns#"
   xmlns:svg="http://www.w3.org/2000/svg"
   xmlns="http://www.w3.org/2000/svg"
   xmlns:sodipodi="http://sodipodi.sourceforge.net/DTD/sodipodi-0.dtd"
   xmlns:inkscape="http://www.inkscape.org/namespaces/inkscape"
   width="22"
   height="22"
   viewBox="0 0 22 22"
   id="svg2"
   version="1.1"
   inkscape:version="0.91 r"
   sodipodi:docname="pamac-refresh.svg">
  <metadata
     id="metadata10">
    <rdf:RDF>
      <cc:Work
         rdf:about="">
        <dc:format>image/svg+xml</dc:format>
        <dc:type
           rdf:resource="http://purl.org/dc/dcmitype/StillImage" />
        <dc:title />
      </cc:Work>
    </rdf:RDF>
  </metadata>
  <defs
     id="defs8">
    <clipPath
       id="clipPath-408241621">
      <g
         id="g3616"
         transform="translate(0,-1004.3622)">
        <path
           id="path3618"
           transform="matrix(15.333333,0,0,11.5,414.99999,878.8622)"
           d="m -24,13 c 0,1.105 -0.672,2 -1.5,2 -0.828,0 -1.5,-0.895 -1.5,-2 0,-1.105 0.672,-2 1.5,-2 0.828,0 1.5,0.895 1.5,2 z"
           inkscape:connector-curvature="0"
           style="fill:#1890d0" />
      </g>
    </clipPath>
    <clipPath
       id="clipPath-408241621-1">
      <g
         id="g3616-3"
         transform="translate(0,-1004.3622)">
        <path
           id="path3618-3"
           transform="matrix(15.333333,0,0,11.5,414.99999,878.8622)"
           d="m -24,13 c 0,1.105 -0.672,2 -1.5,2 -0.828,0 -1.5,-0.895 -1.5,-2 0,-1.105 0.672,-2 1.5,-2 0.828,0 1.5,0.895 1.5,2 z"
           inkscape:connector-curvature="0"
           style="fill:#1890d0" />
      </g>
    </clipPath>
    <clipPath
       id="clipPath-408241621-6">
      <g
         id="g3616-1"
         transform="translate(0,-1004.3622)">
        <path
           id="path3618-8"
           transform="matrix(15.333333,0,0,11.5,414.99999,878.8622)"
           d="m -24,13 c 0,1.105 -0.672,2 -1.5,2 -0.828,0 -1.5,-0.895 -1.5,-2 0,-1.105 0.672,-2 1.5,-2 0.828,0 1.5,0.895 1.5,2 z"
           inkscape:connector-curvature="0"
           style="fill:#1890d0" />
      </g>
    </clipPath>
    <clipPath
       id="clipPath-408241621-9">
      <g
         id="g3616-16"
         transform="translate(0,-1004.3622)">
        <path
           id="path3618-4"
           transform="matrix(15.333333,0,0,11.5,414.99999,878.8622)"
           d="m -24,13 c 0,1.105 -0.672,2 -1.5,2 -0.828,0 -1.5,-0.895 -1.5,-2 0,-1.105 0.672,-2 1.5,-2 0.828,0 1.5,0.895 1.5,2 z"
           inkscape:connector-curvature="0"
           style="fill:#1890d0" />
      </g>
    </clipPath>
  </defs>
  <sodipodi:namedview
     pagecolor="#ffffff"
     bordercolor="#666666"
     borderopacity="1"
     objecttolerance="10"
     gridtolerance="10"
     guidetolerance="10"
     inkscape:pageopacity="0"
     inkscape:pageshadow="2"
     inkscape:window-width="1366"
     inkscape:window-height="747"
     id="namedview6"
     showgrid="true"
     inkscape:zoom="22.627418"
     inkscape:cx="26.05004"
     inkscape:cy="-0.12493554"
     inkscape:window-x="0"
     inkscape:window-y="21"
     inkscape:window-maximized="1"
     inkscape:current-layer="svg2">
    <inkscape:grid
       type="xygrid"
       id="grid4138" />
  </sodipodi:namedview>
  <path
     style="fill:#c28e5c"
     d="M 7 3 L 3 7 L 10 7 L 10 3 L 7 3 z M 12 3 L 12 7 L 19 7 L 15 3 L 12 3 z M 3 9 L 3 19 L 11.832031 19 L 12.136719 17.974609 L 11.851562 17.863281 L 12.607422 15.982422 C 12.667369 15.833159 12.775908 15.719456 12.847656 15.578125 L 13.144531 14.576172 L 13.371094 14.699219 C 14.429613 13.330662 16.080936 12.5 17.863281 12.5 C 18.250041 12.5 18.631184 12.540422 19 12.617188 L 19 9 L 3 9 z "
     id="path4-6-7" />
  <g
     id="g4161"
     transform="matrix(0.63636363,0,0,0.63636363,10.863636,11)"
     style="fill:#4db147;fill-opacity:1">
    <g
       style="fill:#4db147;fill-opacity:1"
       id="g3628"
       transform="matrix(0.34782609,0,0,0.34782609,2.6435901,2.6456559)">
      <path
         inkscape:connector-curvature="0"
         id="path3630"
         transform="matrix(2.875,0,0,2.875,97.067647,-33.481261)"
         d="m -25.40625,14.5 c 2.303968,0 4.367461,1.302964 5.28125,3.3125 l 1.21875,-0.46875 -1,3.46875 -3.3125,-1.84375 1.28125,-0.5 c -0.620857,-1.310198 -1.9541,-2.125 -3.46875,-2.125 -1.572637,0 -2.996131,0.939574 -3.5625,2.34375 L -30.75,18 c 0.844805,-2.103515 2.984794,-3.5 5.34375,-3.5 z m -5.5,4.71875 3.3125,1.78125 -1.28125,0.5 c 0.613358,1.304699 1.964097,2.15625 3.46875,2.15625 1.575636,0 2.978635,-0.910324 3.5625,-2.3125 l 1.78125,0.6875 c -0.876798,2.103015 -2.979296,3.46875 -5.34375,3.46875 -2.292471,0 -4.386956,-1.339213 -5.28125,-3.34375 l -1.21875,0.4375 z"
         style="fill:#4db147;fill-opacity:1"
         sodipodi:nodetypes="scccccsccscccsccsccc" />
    </g>
    <g
       transform="matrix(0.49988464,0,0,0.49988464,-37.411065,7.9950011)"
       clip-path="url(#clipPath-408241621)"
       id="g3650"
       style="fill:#4db147;fill-opacity:1">
      <!-- color: #004794 -->
      <g
         id="g3652"
         style="fill:#4db147;fill-opacity:1" />
    </g>
  </g>
  <g
     id="g4161-9"
     transform="matrix(1.3636364,0,0,1.3636364,-74.661508,-4.3574952)"
     style="fill:#4db147;fill-opacity:1;stroke:#000000;stroke-width:4.4000001;stroke-miterlimit:4;stroke-dasharray:none;stroke-opacity:1">
    <g
       style="fill:#4db147;fill-opacity:1;stroke:#000000;stroke-width:12.64999962;stroke-miterlimit:4;stroke-dasharray:none;stroke-opacity:1"
       id="g3628-2"
       transform="matrix(0.34782609,0,0,0.34782609,2.6435901,2.6456559)" />
    <g
       transform="matrix(0.49988464,0,0,0.49988464,-37.411065,7.9950011)"
       clip-path="url(#clipPath-408241621-1)"
       id="g3650-2"
       style="fill:#4db147;fill-opacity:1;stroke:#000000;stroke-width:8.80203056;stroke-miterlimit:4;stroke-dasharray:none;stroke-opacity:1">
      <!-- color: #004794 -->
      <g
         id="g3652-0"
         style="fill:#4db147;fill-opacity:1;stroke:#000000;stroke-width:8.80203056;stroke-miterlimit:4;stroke-dasharray:none;stroke-opacity:1" />
    </g>
  </g>
  <g
     id="g4161-5"
     transform="matrix(0.9090909,0,0,0.9090909,-32.874999,10.250001)"
     style="fill:#4db147;fill-opacity:1;stroke:#000000;stroke-width:4.4000001;stroke-miterlimit:4;stroke-dasharray:none;stroke-opacity:1">
    <g
       style="fill:#4db147;fill-opacity:1;stroke:#000000;stroke-width:12.64999962;stroke-miterlimit:4;stroke-dasharray:none;stroke-opacity:1"
       id="g3628-0"
       transform="matrix(0.34782609,0,0,0.34782609,2.6435901,2.6456559)" />
    <g
       transform="matrix(0.49988464,0,0,0.49988464,-37.411065,7.9950011)"
       clip-path="url(#clipPath-408241621-6)"
       id="g3650-3"
       style="fill:#4db147;fill-opacity:1;stroke:#000000;stroke-width:8.80203056;stroke-miterlimit:4;stroke-dasharray:none;stroke-opacity:1">
      <!-- color: #004794 -->
      <g
         id="g3652-1"
         style="fill:#4db147;fill-opacity:1;stroke:#000000;stroke-width:8.80203056;stroke-miterlimit:4;stroke-dasharray:none;stroke-opacity:1" />
    </g>
  </g>
  <g
     id="g4161-3"
     transform="matrix(0.63636363,0,0,0.63636363,10.863636,11)"
     style="fill:#4db147;fill-opacity:1;stroke:#000000;stroke-opacity:1;stroke-width:6.28571435;stroke-miterlimit:4;stroke-dasharray:none">
    <g
       style="fill:#4db147;fill-opacity:1;stroke:#000000;stroke-opacity:1;stroke-width:18.07142859;stroke-miterlimit:4;stroke-dasharray:none"
       id="g3628-9"
       transform="matrix(0.34782609,0,0,0.34782609,2.6435901,2.6456559)" />
    <g
       transform="matrix(0.49988464,0,0,0.49988464,-37.411065,7.9950011)"
       clip-path="url(#clipPath-408241621-9)"
       id="g3650-7"
       style="fill:#4db147;fill-opacity:1;stroke:#000000;stroke-opacity:1;stroke-width:12.57432985;stroke-miterlimit:4;stroke-dasharray:none">
      <!-- color: #004794 -->
      <g
         id="g3652-9"
         style="fill:#4db147;fill-opacity:1;stroke:#000000;stroke-opacity:1;stroke-width:12.57432985;stroke-miterlimit:4;stroke-dasharray:none" />
    </g>
  </g>
</svg>

<svg xmlns="http://www.w3.org/2000/svg" viewBox="0 0 22 22">
 <path d="m 7 3 l -4 4 l 7 0 l 0 -4 l -3 0 z m 5 0 l 0 4 l 7 0 l -4 -4 l -3 0 z m -9 6 l 0 10 l 8.832 0 l 0.305 -1.025 l -0.285 -0.111 l 0.756 -1.881 c 0.06 -0.149 0.168 -0.263 0.24 -0.404 l 0.297 -1 l 0.227 0.123 c 1.059 -1.369 2.71 -2.199 4.492 -2.199 c 0.387 0 0.768 0.04 1.137 0.117 l 0 -3.617 l -16 0 z" style="fill:#c28e5c"/>
 <g transform="matrix(0.63636363,0,0,0.63636363,10.863636,11)" style="fill:#4db147;fill-opacity:1">
  <g transform="matrix(0.34782609,0,0,0.34782609,2.6435901,2.6456559)">
   <path transform="matrix(2.875,0,0,2.875,97.067647,-33.481261)" d="m -25.406 14.5 c 2.304 0 4.367 1.303 5.281 3.313 l 1.219 -0.469 -1 3.469 -3.313 -1.844 1.281 -0.5 c -0.621 -1.31 -1.954 -2.125 -3.469 -2.125 -1.573 0 -2.996 0.94 -3.563 2.344 l -1.781 -0.688 c 0.845 -2.104 2.985 -3.5 5.344 -3.5 z m -5.5 4.719 3.313 1.781 -1.281 0.5 c 0.613 1.305 1.964 2.156 3.469 2.156 1.576 0 2.979 -0.91 3.563 -2.313 l 1.781 0.688 c -0.877 2.103 -2.979 3.469 -5.344 3.469 -2.292 0 -4.387 -1.339 -5.281 -3.344 l -1.219 0.438 z"/>
  </g>
  <g transform="matrix(0.49988464,0,0,0.49988464,-37.411065,7.9950011)">
   <!-- color: #004794 -->
  </g>
 </g>
 <g transform="matrix(1.3636364,0,0,1.3636364,-74.661508,-4.3574952)" style="stroke-dasharray:none;stroke-opacity:1;fill:#4db147;stroke-miterlimit:4;fill-opacity:1;stroke:#000;stroke-width:4.4">
  <g transform="matrix(0.49988464,0,0,0.49988464,-37.411065,7.9950011)" style="stroke:#000;stroke-width:8.802">
   <!-- color: #004794 -->
  </g>
 </g>
 <g transform="matrix(0.9090909,0,0,0.9090909,-32.874999,10.250001)" style="stroke-dasharray:none;stroke-opacity:1;fill:#4db147;stroke-miterlimit:4;fill-opacity:1;stroke:#000;stroke-width:4.4">
  <g transform="matrix(0.49988464,0,0,0.49988464,-37.411065,7.9950011)" style="stroke:#000;stroke-width:8.802">
   <!-- color: #004794 -->
  </g>
 </g>
 <g transform="matrix(0.63636363,0,0,0.63636363,10.863636,11)" style="stroke-dasharray:none;stroke-opacity:1;fill:#4db147;stroke-miterlimit:4;fill-opacity:1;stroke:#000;stroke-width:6.286">
  <g transform="matrix(0.49988464,0,0,0.49988464,-37.411065,7.9950011)" style="stroke:#000;stroke-width:12.574">
   <!-- color: #004794 -->
  </g>
 </g>
</svg>
